X:1
T:Nordmandssang
T:Nordmandssang
T:Norsk Folkemelodi
T:Joh. D. Behrens
T:B. Bjørnson
C:Joh. D. Behrens
Z:B. Bjørnson
%%score [ 1 2 3 4 ]
L:1/8
M:3/4
K:G
V:1 treble-8 nm="T1"
V:2 treble-8 nm="T2"
V:3 bass nm="B1"
V:4 bass nm="B2"
V:1
!mf! (GA) | B2 (BA) (Bc) | d2 d2 (ec) | B2 (Bc) (BA) | G4 :|!mf! B2 |"^cresc." ^d2 d2 d2 | %7
w: 1.Vi _|Nord- mænd _ vil _|syn- ge for _|Nor- ge _ en _|Sang,|paa|stær- ke- re|
w: hun _|har vel _ for- *|tjent den og _|faar den _ en- *|gang|||
 e2 e2 e2 | f4 f2 |!ff! g4!mf! (Bc) | B2 (Bc) (BA) |!>(! G2 G2!>)! A2 | !>!B4 B2 | !fermata!B4 |] %14
w: Maal med Ka-|no- ner|til, hvis _|el- lers _ hun _|ly- ster og|An- dre|vil!|
w: |||||||
V:2
!mf! (GF) | G2 (GF) (GA) | B2 G2 (GA) | G2 (GA) (GF) | G4 :|!mf! G2 |"^cresc." B2 B2 A2 | %7
w: 1.Vi _|Nord- mænd _ vil _|syn- ge for _|Nor- ge _ en _|Sang,|paa|stær- ke- re|
w: hun _|har vel _ for- *|tjent den og _|faar den _ en- *|gang|||
 G2 c2 B2 | (A2 d2) c2 |!ff! B4!mf! (GG) | F2 (F^D) (EF) |!>(! G2 G2!>)! F2 | (!>!G2 !>!E2) G2 | %13
w: Maal med Ka-|no- * ner|til, hvis _|el- lers _ hun _|ly- ster og|An- * dre|
w: ||||||
 !fermata!F4 |] %14
w: vil!|
w: |
V:3
!mf! D,2 | G,2 D,2 D,2 | G,2 G,2 E,2 | D,2 D,2 (D,C,) | B,,4 :|!mf! G,2 |"^cresc." F,2 F,2 F,2 | %7
w: 1.Vi|Nord- mænd vil|syn- ge for|Nor- ge en _|Sang,|paa|stær- ke- re|
w: hun|har vel for-|tjent den og|faar den en- *|gang|||
 E,2 G,2 G,2 | (F,2 A,2) A,2 |!ff! G,4!mf! (G,E,) | ^D,2 (D,F,) (B,,D,) |!>(! E,2 =D,2!>)! C,2 | %12
w: Maal med Ka-|no- * ner|til, hvis _|el- lers _ hun _|ly- ster og|
w: |||||
 (!>!D,2 !>!^D,2) E,2 | !fermata!^D,4 |] %14
w: An- * dre|vil!|
w: ||
V:4
!mf! (B,,D,) | G,2 (G,,C,) (B,,A,,) | G,,2 B,,2 C,2 | D,2 D,2 D,2 | G,,4 :|!mf! E,2 | %6
w: 1.Vi _|Nord- mænd _ vil _|syn- ge for|Nor- ge en|Sang,|paa|
w: hun _|har vel _ for- *|tjent den og|faar den en-|gang||
"^cresc." B,,2 B,,2 B,,2 | C,2 C,2 C,2 | D,4 D,2 |!ff! G,,4!mf! (G,,A,,) | B,,2 (B,,A,,) (G,,B,,) | %11
w: stær- ke- re|Maal med Ka-|no- ner|til, hvis _|el- lers _ hun _|
w: |||||
!>(! C,2 B,,2!>)! A,,2 | (!>!G,,2 !>!B,,2) E,2 | !fermata!B,,4 |] %14
w: ly- ster og|An- * dre|vil!|
w: |||

